X: 262
T: 263. Jesu, meine Freude
N: Derived from chor263.krn
C: Johann Sebastian Bach
%%abc-version 2.0
%%abcx-abcm2ps-target-version 5.9.1 (29 Sep 2008)
%%abc-creator hum2abc beta
%%abcx-conversion-date 2019/03/11 17:28:19
%%abc-edited-by Craig Stuart Sapp
%%humdrum-veritas 1835328531
%%humdrum-veritas-data 4182417855
%%
%%barnumbers 0
L: 1/4
M: C
%%staves [1 2 3 4]
V: 1 clef=treble
V: 2 clef=treble
V: 3 clef=treble-8
V: 4 clef=bass
K: G
[V:1] BBAG | 
[V:2] GFE/^D/E | 
[V:3] eBc/F/G | 
[V:4] E,D,C,3/B,,/ | 
[V:1] F2!fermata!E2 | 
[V:2] E^D!fermata!B,2 | 
[V:3] cB/A/!fermata!G2 | 
[V:4] A,,B,,!fermata!E,2 | 
[V:1] B^cdB | 
[V:2] G/F/EDD | 
[V:3] e/d/ ^c/B/AG/A/ | 
[V:4] E,A,/G,/F,G,/F,/ | 
[V:1] e2!fermata!^d2 | 
[V:2] G/A/B!fermata!B2 | 
[V:3] Bg!fermata!f2 | 
[V:4] E,/F,/G,/A,/!fermata!B,2 | 
[V:1] e/f/gf3/f/ | 
[V:2] G/A/BB3/A/ | 
[V:3] eee^d | 
[V:4] CB,/A,/B,B,, | 
[V:1] !fermata!e4 :|]  
[V:2] !fermata!G4 :|]  
[V:3] !fermata!B4 :|]  
[V:4] !fermata!E,4 :|]  
[V:1] BBcB | 
[V:2] GGAG | 
[V:3] eddd | 
[V:4] E,/F,/G,F,G, | 
[V:1] A3/A/!fermata!G2 | 
[V:2] GF!fermata!D2 | 
[V:3] ed/c/!fermata!B2 | 
[V:4] C,D,!fermata!G,,2 | 
[V:1] B^cdB | 
[V:2] GGAG/A/ | 
[V:3] dedd | 
[V:4] G,F,/E,/F,G,/F,/ | 
[V:1] ed/^c/c2 | 
[V:2] BBB^A | 
[V:3] gfgf/e/ | 
[V:4] E,B,,E,F, | 
[V:1] !fermata!B2BB | 
[V:2] !fermata!F2GF | 
[V:3] !fermata!^d2ef/g/ | 
[V:4] !fermata!B,,2E,D, | 
[V:1] AG/F/F2 | 
[V:2] EEE^D | 
[V:3] a/A/BcB/A/ | 
[V:4] C,B,,A,,B,, | 
[V:1] !fermata!E4 |]  
[V:2] !fermata!B,4 |]  
[V:3] !fermata!^G4 |]  
[V:4] !fermata!E,4 |]  



